src/assets/spoon.svg

<svg fill="none" height="10" viewBox="0 0 40 10" width="40" xmlns="http://www.w3.org/2000/svg"><path d="m33.5014 9.5c3.5833 0 6.4984-2.01871 6.4984-4.50005s-2.9151-4.49995-6.4984-4.49995c-3.3894 0-6.1795 1.80637-6.4716 4.1018h-4.6771v-.9466h-22.35291362v2.68926h22.35301362v-.94648h4.6771c.2922 2.29554 3.0821 4.10202 6.4715 4.10202zm-12.0118-3.95161h-20.626521v-1.09678h20.626521zm6.3764-.54844c0-2.04217 2.5282-3.70355 5.6355-3.70355s5.6355 1.66138 5.6355 3.70355c0 2.04227-2.5282 3.70375-5.6355 3.70375s-5.6355-1.66148-5.6355-3.70375z" fill="#dcca87"/></svg>

<svg width="40" height="10" viewBox="0 0 40 10" fill="none" xmlns="http://www.w3.org/2000/svg">
<path d="M33.5014 9.5C37.0847 9.5 39.9998 7.48129 39.9998 4.99995C39.9998 2.51861 37.0847 0.5 33.5014 0.5C30.112 0.5 27.3219 2.30637 27.0298 4.6018H22.3527V3.6552L-0.000213623 3.6552V6.34446L22.3528 6.34446V5.39798H27.0299C27.3221 7.69352 30.112 9.5 33.5014 9.5ZM21.4896 5.54839L0.863079 5.54839V4.45161H21.4896V5.54839ZM27.866 4.99995C27.866 2.95778 30.3942 1.2964 33.5015 1.2964C36.6088 1.2964 39.137 2.95778 39.137 4.99995C39.137 7.04222 36.6088 8.7037 33.5015 8.7037C30.3942 8.7037 27.866 7.04222 27.866 4.99995Z" fill="#DCCA87"/>
</svg>
